X: 1134
T: Me Mother's
T: Robert Whinham's
T: Whinham's
M: 6/8
L: 1/8
R: jig
K: Gmaj
|: B/c/ | 
d2 G F2 A | G2 B A2 c | B/c/dB c2 e | d2 g f/g/af | 
g2 B FAA | G2 B Acc | B2 d c/d/ec | dgf g2 :|
|: e/f/ | 
g2 b f2 a | ee/f/g d2 B | c2 e B2 d | Ac/B/A FAf |
g2 b faa | e2 g d>cB | c2 e dcB | dgf g2 :|
|: B/c/ | 
d2 g e2 g | dgg e^de | d^cd B2 G | A>^GA FED |
d2 g egg | d2 g e3 |1 d^cd B2 G | AGF G2 :|2 d^cd b2 a | gaf g2 ||
